X:176
T:Templehouse (r)
B:NFID.105a
176temple
S:SD
L:1/8
M:C
R:reel
Q:360
K:Em
EFGA BGFE|D2ED ADED|EFGA BEE2|BAFA BEEB:|
gfef g2eg|fede fgaf|gfef g2ed|BAFA BEEB|
gfef g2eg|fede fgaf|eeef gfed|BAFA BEEB:|

%%%

